input boxes

% Goblin
beginfig(1);
 draw fullcircle scaled 3cm withpen pencircle scaled 1cm;
endfig;

% Illumint
beginfig(3);
 draw fullcircle scaled 3cm withpen pencircle scaled 1cm;
endfig;

% Daemon
beginfig(5);
 draw fullcircle scaled 3cm withpen pencircle scaled 1cm;
endfig;

% Shadow
beginfig(7);
 draw fullcircle scaled 3cm withpen pencircle scaled 1cm;
endfig;
end
